icon/fa/user-secret.svg

<svg xmlns="http://www.w3.org/2000/svg" viewBox="0 0 448 512"><!--! Font Awesome Free 6.1.2 by @fontawesome - https://fontawesome.com License - https://fontawesome.com/license/free (Icons: CC BY 4.0, Fonts: SIL OFL 1.1, Code: MIT License) Copyright 2022 Fonticons, Inc.--><path d="m377.7 338.8 37.15-92.87C419 235.4 411.3 224 399.1 224h-57.48c6.88-14.8 10.38-31 10.38-48 0-4.117-.836-8.057-1.217-12.08C390.7 155.1 416 142.3 416 128c0-16.08-31.75-30.28-80.31-38.99C323.8 45.15 304.9 0 277.4 0c-10.38 0-19.62 4.5-27.38 10.5-15.25 11.88-36.75 11.88-52 0C190.3 4.5 181.1 0 170.7 0c-27.5 0-46.3 45.16-58.2 88.98C63.83 97.68 32 111.9 32 128c0 14.34 25.31 27.13 65.22 35.92C96.84 167.9 96 171.9 96 176c0 17 3.47 33.2 9.5 48H48.02c-11.32 0-19.06 11.4-14.86 21.9l37.15 92.87C27.87 370.4 0 420.4 0 477.3 0 496.5 15.52 512 34.66 512H413.3c19.2 0 34.7-15.5 34.7-34.7 0-56.9-27.9-106.9-70.3-138.5zM176 479.1 128 288l64 32 16 32-32 127.1zm95.1 0L240 352l16-32 64-32-48.9 191.1zM320 186c0 21-17.2 38-38.4 38h-12.33c-16.46 0-30.29-10.39-35.63-24.99-1.54-4.11-5.24-7.01-9.64-7.01s-8.1 2.9-9.6 7c-5.4 14.6-19.2 25-35.6 25h-12.33C145.2 224 128 207 128 186v-16.5c28.3 4.1 60.1 6.5 96 6.5s67.74-2.383 96-6.473V186z"/></svg>

<svg xmlns="http://www.w3.org/2000/svg" viewBox="0 0 448 512" height="1em" width="1em">
<!--! Font Awesome Free 6.1.2 by @fontawesome - https://fontawesome.com License - https://fontawesome.com/license/free (Icons: CC BY 4.0, Fonts: SIL OFL 1.1, Code: MIT License) Copyright 2022 Fonticons, Inc.-->
  <path d="M377.7 338.8l37.15-92.87C419 235.4 411.3 224 399.1 224h-57.48C348.5 209.2 352 193 352 176c0-4.117-.8359-8.057-1.217-12.08C390.7 155.1 416 142.3 416 128c0-16.08-31.75-30.28-80.31-38.99C323.8 45.15 304.9 0 277.4 0c-10.38 0-19.62 4.5-27.38 10.5c-15.25 11.88-36.75 11.88-52 0C190.3 4.5 181.1 0 170.7 0C143.2 0 124.4 45.16 112.5 88.98C63.83 97.68 32 111.9 32 128c0 14.34 25.31 27.13 65.22 35.92C96.84 167.9 96 171.9 96 176C96 193 99.47 209.2 105.5 224H48.02C36.7 224 28.96 235.4 33.16 245.9l37.15 92.87C27.87 370.4 0 420.4 0 477.3C0 496.5 15.52 512 34.66 512H413.3C432.5 512 448 496.5 448 477.3C448 420.4 420.1 370.4 377.7 338.8zM176 479.1L128 288l64 32l16 32L176 479.1zM271.1 479.1L240 352l16-32l64-32L271.1 479.1zM320 186C320 207 302.8 224 281.6 224h-12.33c-16.46 0-30.29-10.39-35.63-24.99C232.1 194.9 228.4 192 224 192S215.9 194.9 214.4 199C209 213.6 195.2 224 178.8 224h-12.33C145.2 224 128 207 128 186V169.5C156.3 173.6 188.1 176 224 176s67.74-2.383 96-6.473V186z"/>
</svg>
